x-pack/solutions/search/plugins/enterprise_search/public/assets/images/rrf.svg

<svg width="40" height="40" viewBox="0 0 40 40" fill="none" xmlns="http://www.w3.org/2000/svg">
<path fill-rule="evenodd" clip-rule="evenodd" d="M20 12.5C20.9163 12.5 21.7925 12.6737 22.605 12.9762L24.5 11.0812C23.145 10.395 21.6187 10 20 10C14.4863 10 10 14.4863 10 20C10 22.0575 10.62 24.0337 11.7938 25.7162L13.845 24.2863C12.965 23.025 12.5 21.5425 12.5 20C12.5 15.8637 15.8637 12.5 20 12.5Z" fill="#00BFB3"/>
<path fill-rule="evenodd" clip-rule="evenodd" d="M27.024 17.3949C27.3265 18.2074 27.5002 19.0836 27.5002 19.9999C27.5002 21.5024 27.0577 22.9524 26.2202 24.1924L28.2915 25.5924C29.409 23.9361 30.0002 22.0036 30.0002 19.9999C30.0002 18.3811 29.604 16.8549 28.919 15.4999L27.024 17.3949Z" fill="#00BFB3"/>
<path d="M0 18.75V21.25C2.76136 21.25 5 23.4884 5 26.25V31.25C5 36.0816 8.9184 40 13.75 40V37.5C10.2991 37.5 7.5 34.7009 7.5 31.25V26.25C7.5 23.6411 6.16811 21.3436 4.14731 20C6.16811 18.6564 7.5 16.3589 7.5 13.75V8.75C7.5 5.2991 10.2991 2.5 13.75 2.5V0C8.9184 0 5 3.9184 5 8.75V13.75C5 16.5116 2.76136 18.75 0 18.75V21.25C1.53342 21.25 2.9594 20.7899 4.14731 20C2.9594 19.2101 1.53342 18.75 0 18.75Z" fill="#535766"/>
<path d="M40 21.25V18.75C37.2386 18.75 35 16.5116 35 13.75V8.75C35 3.9184 31.0816 0 26.25 0V2.5C29.7009 2.5 32.5 5.2991 32.5 8.75V13.75C32.5 16.3589 33.8319 18.6564 35.8527 20C33.8319 21.3436 32.5 23.6411 32.5 26.25V31.25C32.5 34.7009 29.7009 37.5 26.25 37.5V40C31.0816 40 35 36.0816 35 31.25V26.25C35 23.4884 37.2386 21.25 40 21.25V18.75C38.4666 18.75 37.0406 19.2101 35.8527 20C37.0406 20.7899 38.4666 21.25 40 21.25Z" fill="#535766"/>
<path fill-rule="evenodd" clip-rule="evenodd" d="M20 23.75C22.0704 23.75 23.75 22.0704 23.75 20C23.75 17.9296 22.0704 16.25 20 16.25C17.9296 16.25 16.25 17.9296 16.25 20C16.25 22.0704 17.9296 23.75 20 23.75ZM20 18.75C20.6896 18.75 21.25 19.3104 21.25 20C21.25 20.6896 20.6896 21.25 20 21.25C19.3104 21.25 18.75 20.6896 18.75 20C18.75 19.3104 19.3104 18.75 20 18.75Z" fill="#535766"/>
<path d="M22.6515 19.1165L29.009 12.759L27.2413 10.9912L20.8838 17.3486L22.6515 19.1165Z" fill="#535766"/>
</svg>

<svg xmlns="http://www.w3.org/2000/svg" width="40" height="40" fill="none"><path fill="#00BFB3" fill-rule="evenodd" d="M20 12.5a7.5 7.5 0 0 1 2.605.476l1.895-1.895A9.9 9.9 0 0 0 20 10c-5.514 0-10 4.486-10 10a9.94 9.94 0 0 0 1.794 5.716l2.051-1.43A7.46 7.46 0 0 1 12.5 20c0-4.136 3.364-7.5 7.5-7.5M27.024 17.395a7.45 7.45 0 0 1-.804 6.797l2.072 1.4a9.96 9.96 0 0 0 .627-10.092z" clip-rule="evenodd"/><path fill="#535766" d="M0 18.75v2.5a5 5 0 0 1 5 5v5A8.75 8.75 0 0 0 13.75 40v-2.5c-3.45 0-6.25-2.8-6.25-6.25v-5A7.5 7.5 0 0 0 4.147 20 7.5 7.5 0 0 0 7.5 13.75v-5c0-3.45 2.8-6.25 6.25-6.25V0A8.75 8.75 0 0 0 5 8.75v5a5 5 0 0 1-5 5v2.5c1.533 0 2.96-.46 4.147-1.25A7.47 7.47 0 0 0 0 18.75M40 21.25v-2.5a5 5 0 0 1-5-5v-5A8.75 8.75 0 0 0 26.25 0v2.5c3.45 0 6.25 2.8 6.25 6.25v5A7.5 7.5 0 0 0 35.853 20a7.5 7.5 0 0 0-3.353 6.25v5c0 3.45-2.8 6.25-6.25 6.25V40A8.75 8.75 0 0 0 35 31.25v-5a5 5 0 0 1 5-5v-2.5c-1.533 0-2.96.46-4.147 1.25A7.47 7.47 0 0 0 40 21.25"/><path fill="#535766" fill-rule="evenodd" d="M20 23.75a3.75 3.75 0 1 0-.002-7.502A3.75 3.75 0 0 0 20 23.75m0-5a1.251 1.251 0 0 1 0 2.5 1.251 1.251 0 0 1 0-2.5" clip-rule="evenodd"/><path fill="#535766" d="m22.652 19.117 6.357-6.358-1.768-1.768-6.357 6.358z"/></svg>
